X: 8
T: Farewell To Chernobyl
R: reel
M: 4/4
L: 1/8
K: Emin
|: (3EEE EG BEGB | EGBG AGFD | (3B,B,B, B,D FB,DF | B,DFA BAGF |(3EEE EG BEGB | EGBG AGFA | (3ddd Ad FAdf |[1 gfed edBA :|[2 gfed edBd ||(3eee ge aege | (3eee ge agfg | (3eee ge aege | (3fff fg fBdf |(3eee ge aege | (3eee ge agfg | ab b2 ba a2 | ag g2 fBdf |(3eee ge aege | (3eee ge agfg | (3eee ge aege | (3fff fg fBdf |(3eee ge aege | ccec ggec | dfag bagf | gfed edBA |]


Tune 767	Setting 28732

